packages/astro-components-stencil/src/icons/grade.svg

<svg width="24" height="24" viewBox="0 0 24 24" fill="none" xmlns="http://www.w3.org/2000/svg">
<path d="M12 17.27L17.17 20.39C17.55 20.62 18.02 20.28 17.92 19.85L16.55 13.97L21.11 10.02C21.44 9.73 21.27 9.18 20.82 9.14L14.81 8.63L12.46 3.09C12.29 2.68 11.71 2.68 11.54 3.09L9.18999 8.63L3.17999 9.14C2.73999 9.18 2.55999 9.73 2.89999 10.02L7.45999 13.97L6.08999 19.85C5.99 20.28 6.45999 20.62 6.83999 20.39L12 17.27Z" fill="black"/>
</svg>

<svg xmlns="http://www.w3.org/2000/svg" viewBox="0 0 24 24"><g xmlns="http://www.w3.org/2000/svg" id="grade" fill-rule="nonzero">
            <path d="M12 17.27l5.17 3.12c.38.23.85-.11.75-.54l-1.37-5.88 4.56-3.95c.33-.29.16-.84-.29-.88l-6.01-.51-2.35-5.54a.498.498 0 00-.92 0L9.19 8.63l-6.01.51a.5.5 0 00-.28.88l4.56 3.95-1.37 5.88c-.1.43.37.77.75.54L12 17.27z"/>
        </g></svg>
